X:1
T:Tra le gemme
T:Tra le gemme
T:Francesca Caccini
T:Source : Primo libro delle Musische a 1 e 2 voci---Firenze---Z.Pignoni---1618. Editor : André Vierendeels (14/06/15).
T:Notes : Original clefs : C1, F4 Editorial accidentals above the staff Figures in BC are notated in original print m 16 in BC,  first "re" notated as "mi" in original print Second part of a 4-part sonetto, see also, part 1 "La pastorella", part 3 "E trai pomi" and part 4 "Regi nan"
C:Francesca Caccini
%%score 1 { 2 | 3 }
L:1/8
Q:1/4=76
M:4/4
K:C
V:1 treble nm="Soprano" snm="S"
V:2 treble nm="BC" snm="BC"
V:3 bass 
V:1
 G2 G2 G2 GA | B4- B z/ E/ F/G/A/B/ | c/B/c/B/ TB/B/A/G/ A/E/.F/G/ A/B/c/d/ | e2 Td>c d4 | %4
w: Tra le gem- me'il ru-|bin _ va- * * * *||* go'e ver- mi-|
 c4- c2 B>A | G2 A2 B/A/A B/c/c | d2 c/B/A B2- TB>A | A4 A2 G2 | A/G/G A/B/B c/B/B TB>A | G3 A A4 | %10
w: glio _ _ _|_ s'io mi- * * * * *|ro _ _ _ del _ le|lab- bra il|bel _ _ _ _ _ _ _ _ _ _|_ co- lo-|
 G3 A B>c d2- | d2 A2 B/A/A B/c/c | d2 G2 A3 A | BA TA/A/G/^F/ G/D/E/F/ G/A/B/c/ | %14
w: re, _ _ _ _|_ s'io mi- * * * * *|* ro del- le|lab- * * * * * * * * * * * * *|
 B/c/d/.c/ Tc/c/ z/ B/ c/A/B/c/ TB/B/B/.A/4G/4 | ^F3 G GA/B/ TA>G | G4 z4 | z8 | z8 | z8 |] %20
w: * * * * * * bra'il bel _ _ _ _ _ _ _ _|_ co- lo- * * * *|re.||||
V:2
 z8 | z8 | z8 | z8 | z8 | z8 | z8 | z8 | z8 | z8 | z8 | z8 | z8 | z8 | z8 | z8 | %16
"^Ritornello" G>D E>F G>A B>c | d>G A>B c2 ed | cB AG A4 | G8 |] %20
V:3
 G,2 F,2 E,2 D,2 | C,4 C,2 D,2 | E,2 C,2 F,2 G,2 |"^6#""^4      3" E,2 A,2 G,4 | C,4 C,2 D,2 | %5
 E,2 F,2 G,2 .E,2 |"^-natural" D,2 F,2 E,4 | A,,A, G,2 F,2 E,2 |"^-natural" D,4 C,2 D,2 | %9
 E,2 C,2 .D,4 |"^-natural" G,,4 G,,2 ^F,,2 |"^#" A,,2 A,,2 D,4 | D,2 B,,2 C,2 D,2 | G,,4 G,2 F,2 | %14
 E,2 D,2 C,2 D,2 | D,2 C,2 D,4 | G,,4 G,2 F,2 | E,2 D,2 C,2 D,2 | E,2 C,2 D,4 | G,,8 |] %20

